X:269
T:La Bamba
Z:Jack Campin, http://www.campin.me.uk/
F:Jack Campin's Nine-Note Tunebook
% last edit 03-02-2013
G:folksong from Veracruz, Mexico
M:4/4
L:1/8
Q:1/4=150
K:G
zc cc c2cB-|BG- G2  z4    |\
z2 cc cccc |BG2  G  G2 GA-|
A2 FA cBAB-|BG  z2  z4    |\
z2 cc cccc |BGGG    G2 EA |
A2 FA cBAB-|BG  z2  z4    |\
z2 AB cBAB-|BG  zG  G2 EA-|
A2 FA cBAG-|G2  G2  E2 ED |\
zc cc c2cB-|BG  z2  z4    |
zc cc c2cB-|BG2  E- EG2 E |\
A2 zF A2cB-|B2  zG  G2 ED-|\
D2 z2 z4  ||
G4    E3 F-|FD  z2  z4    |\
B4    G3 A-|AA  z2  z4    |
B4    G3 A-|AA  z2  z4    |\
G4    E3 F-|FD  z2  z4   |]

